X: 1894
T: Unutulmuş Ne Varsa
C: Avni Anıl
O: Turkey
F: http://compmusic.upf.edu/node/140
N: muhayyerkurdi--sarki--duyek--unutulmus_ne--avni_anil
N: makam= muhayyerkurdi
N: form= sarki
N: usul= duyek = 8/4
M: 8/4
L: 1/16
K: C _B   
Q: 1/4=120
%%MIDI tuningsystem comma53
g2 a6 a8  | (3b2a2g2 (3^3/4f2g2a2 =f2 ed d4  | \
w:  U nu tul  |  muş   | 
d2 {f}(3edc B2 BA A8  | 
w:  ne  *  var *  *  *  *  *  sa   | 
c2 e2 c2 d2 B2 G2 Ad e^3/4f  | g2 g4 ^f^e f8  | \
w:  SAZ  |  *  sev gi *  den   | 
^f2 a2 g2 _7/8b2 ag f^e f2 f/g/a/_2/4b/  | 
w:  *  *  *  *  *  *  *  *  *  SAZ  | 
c'2 c'c' _7/8b2 ba a8  | z2 d'14  | c'2 a2 f2 d2 cA BG A4  | \
w:  *  ge *  ri  ka *  lan    |  SAZ  |   | 
g2 a6 a8  | 
w:  U nu tul  | 
(3b2a2g2 (3^3/4f2g2a2 =f2 ed d4  | \
w:  muş   | 
d2 {f}(3edc B2 BA A8  | c2 e2 c2 d2 B2 G2 Ad e^3/4f  | 
w:  ne  *  var *  *  *  *  *  sa   |  SAZ  | 
g2 g4 ^f^e f8  | ^f2 a2 g2 _7/8b2 ag f^e f2 f/g/a/_2/4b/  | \
w:  *  sev gi *  den   |  *  *  *  *  *  *  *  *  *  SAZ  | 
c'2 c'c' _7/8b2 ba a8  | 
w:  *  ge *  ri  ka *  lan    | 
z2 d'14  | c'2 a2 f2 d2 de fg a4  | z2 a4 (3bab g8  | \
w:  SAZ  |   |  Bir  ka *  *  deh   | 
(3aga f6 (3gfg e6  | 
w:  şa *  *  rap  gi *  *  bi   | 
c'3b a3g f3e d2 cB  | A2 B6 B3/2A/ Bc B2 A2  | \
w:  SAZ  |  i çil miş   | 
b3a g3f e3d c4  | 
w:   | 
z2 B4 BA G4 cB BA  | A16  | d'16  | c'2 a2 f2 d2 de fg a4  | \
w:  şar kı *  lar  |  da    |  SAZ  |   | 
z2 a4 (3bab g8  | 
w:  Bir  ka *  *  deh   | 
(3aga f6 (3gfg e6  | c'3b a3g f3e d2 cB  | \
w:  şa *  *  rap  gi *  *  bi   |  SAZ  | 
A2 B6 B3/2A/ Bc B2 A2  | 
w:  i çil miş   | 
b3a g3f e3d c4  | z2 B4 BA G4 cB BA  | A16  | \
w:   |  şar kı *  lar  |  da    | 
c2 e2 c2 d2 B2 G2 A4  | 
w:  SAZ  | 
z2 e4 ef ed cd e4  | d2 e4 (3fed d4 cB BA  | \
w:   |  Bü tün  ı *  *  şık  | 
A2 g4 (3^3/4fef g^1/4f fe e4  | 
w:  lar   | 
z2 a6 gf ed e4  | c2 e2 c2 d2 B2 G2 Ad e^f  | \
w:  sön müş   |  SAZ  | 
g2 g4 ^f^e f8  | 
w:  *  ter ke *  dil  | 
^f2 a2 g2 _7/8b2 ag f^e f2 f/g/a/_2/4b/  | \
w:  miş  *  *  *  *  *  *  *  SAZ  | 
c'2 c'4 ba a8  | z2 d'14  | c'2 a2 f2 d2 de fg a4  | 
w:  *  ha tı *  ran    |  SAZ  |   | 
z2 a4 (3bab g8  | (3aga f6 (3gfg e6  | \
w:  Bir  ka *  *  deh   |  şa *  *  rap  gi *  *  bi   | 
c'3b a3g f3e d2 cB  | 
w:  SAZ  | 
A2 B6 B3/2A/ Bc B2 A2  | b3a g3f e3d c4  | \
w:  i çil miş   |   | 
B2 B4 BA G4 c2 BA  | 
w:  *  *  KARAR  | 
A16  | |


